X: 18619
T: I Will Raise My Sail Black
R: waltz
M: 3/4
K: Fmajor
L: 1/16
F2G2|A4 d4 ((3e2d2^c2)|d4D4 (F2G2)|A6 G2 (G2F2)|F8 (A2B2)|
c4 (A2c2) (d2e2)|f4 (e2d2) (e2^c2)|d4 (c2A2) (G2F2)|
D8 A2B2|c4 (A2c2) (d2e2)|f4 (e2d2) (e2^c2)|
(d2c2) (A2G2) (A2F2)|D8 (3(D2F2) G2|A4 d4 (e2^c2)|
d4 D4 (F2G2)|A4 (G2F2) (G3F)|F8 A2B2|c4(A2c2) (d2e2)|
f4 (e2d2) (e2^c2)|(d2 c2) (A2G2) (A2F2)|D8 (F2G2)|A4 d4 (e2^c2)|
d4 D4 (F2G2)|A4 (G2F2) (G3F)|D12||

